src/data/imges/icon-2.svg

<svg width="48" height="38" xmlns="http://www.w3.org/2000/svg"><g fill="#F95738" fill-rule="evenodd"><path d="M24 32.154c-10.943 0-19.846-8.339-19.846-18.588a1 1 0 0 1 1-1h37.692a1 1 0 0 1 1 1c0 10.249-8.903 18.588-19.846 18.588ZM6.186 14.566C6.744 23.249 14.521 30.154 24 30.154s17.256-6.905 17.813-15.588H6.186ZM28.857 10.282a1 1 0 0 1-1-1V3.9a1 1 0 1 1 2 0v5.382a1 1 0 0 1-1 1ZM24 10.282a1 1 0 0 1-1-1V1.23a1 1 0 0 1 2 0v8.052a1 1 0 0 1-1 1ZM19.142 10.282a1 1 0 0 1-1-1V3.9a1 1 0 0 1 2 0v5.382a1 1 0 0 1-1 1ZM41.584 37.77H6.416a1 1 0 1 1 0-2h35.168a1 1 0 1 1 0 2Z"/><path d="M47 17.167h-3.857a1 1 0 1 1 0-2H47a1 1 0 1 1 0 2ZM4.858 17.167H1a1 1 0 0 1 0-2h3.858a1 1 0 0 1 0 2Z"/></g></svg>

<?xml version="1.0" encoding="UTF-8" standalone="no"?>
<svg width="48px" height="38px" viewBox="0 0 48 38" version="1.1" xmlns="http://www.w3.org/2000/svg" xmlns:xlink="http://www.w3.org/1999/xlink">
    <!-- Generator: Sketch 39.1 (31720) - http://www.bohemiancoding.com/sketch -->
    <title>Slice 1</title>
    <desc>Created with Sketch.</desc>
    <defs></defs>
    <g id="Page-1" stroke="none" stroke-width="1" fill="none" fill-rule="evenodd">
        <g id="noun_105177_cc" fill="#F95738">
            <g id="Group">
                <path d="M24,32.154 C13.057,32.154 4.154,23.815 4.154,13.566 C4.154,13.014 4.602,12.566 5.154,12.566 L42.846,12.566 C43.399,12.566 43.846,13.014 43.846,13.566 C43.846,23.815 34.943,32.154 24,32.154 L24,32.154 Z M6.186,14.566 C6.744,23.249 14.521,30.154 24,30.154 C33.479,30.154 41.256,23.249 41.813,14.566 L6.186,14.566 L6.186,14.566 Z" id="Shape"></path>
                <path d="M28.857,10.282 C28.304,10.282 27.857,9.834 27.857,9.282 L27.857,3.9 C27.857,3.348 28.304,2.9 28.857,2.9 C29.41,2.9 29.857,3.348 29.857,3.9 L29.857,9.282 C29.857,9.834 29.41,10.282 28.857,10.282 L28.857,10.282 Z" id="Shape"></path>
                <path d="M24,10.282 C23.448,10.282 23,9.834 23,9.282 L23,1.23 C23,0.678 23.448,0.23 24,0.23 C24.553,0.23 25,0.678 25,1.23 L25,9.282 C25,9.834 24.553,10.282 24,10.282 L24,10.282 Z" id="Shape"></path>
                <path d="M19.142,10.282 C18.59,10.282 18.142,9.834 18.142,9.282 L18.142,3.9 C18.142,3.348 18.59,2.9 19.142,2.9 C19.694,2.9 20.142,3.348 20.142,3.9 L20.142,9.282 C20.142,9.834 19.694,10.282 19.142,10.282 L19.142,10.282 Z" id="Shape"></path>
                <path d="M41.584,37.77 L6.416,37.77 C5.864,37.77 5.416,37.323 5.416,36.77 C5.416,36.217 5.864,35.77 6.416,35.77 L41.584,35.77 C42.137,35.77 42.584,36.217 42.584,36.77 C42.584,37.323 42.137,37.77 41.584,37.77 L41.584,37.77 Z" id="Shape"></path>
                <g transform="translate(0.000000, 15.000000)" id="Shape">
                    <path d="M47,2.167 L43.143,2.167 C42.59,2.167 42.143,1.719 42.143,1.167 C42.143,0.615 42.59,0.167 43.143,0.167 L47,0.167 C47.553,0.167 48,0.615 48,1.167 C48,1.719 47.553,2.167 47,2.167 L47,2.167 Z"></path>
                    <path d="M4.858,2.167 L1,2.167 C0.448,2.167 0,1.719 0,1.167 C0,0.615 0.448,0.167 1,0.167 L4.858,0.167 C5.41,0.167 5.858,0.615 5.858,1.167 C5.858,1.719 5.41,2.167 4.858,2.167 L4.858,2.167 Z"></path>
                </g>
            </g>
        </g>
    </g>
</svg>
